client/src/resources/socials/facebook.svg

<svg width="31" height="30" viewBox="0 0 31 30" fill="none" xmlns="http://www.w3.org/2000/svg">
<g clip-path="url(#clip0_1128_209)">
<path d="M30.5 15.0912C30.5 22.5775 25.0075 28.7837 17.8375 29.91V19.4562H21.3237L21.9875 15.1312H17.8375V12.325C17.8375 11.1412 18.4175 9.98875 20.275 9.98875H22.1613V6.30625C22.1613 6.30625 20.4487 6.01375 18.8125 6.01375C15.395 6.01375 13.1625 8.085 13.1625 11.8337V15.13H9.36375V19.455H13.1625V29.9087C5.99375 28.7812 0.5 22.5762 0.5 15.0912C0.5 6.8075 7.21625 0.0912476 15.5 0.0912476C23.7838 0.0912476 30.5 6.80625 30.5 15.0912Z" fill="white"/>
</g>
<defs>
<clipPath id="clip0_1128_209">
<rect width="30" height="30" fill="white" transform="translate(0.5)"/>
</clipPath>
</defs>
</svg>

<svg xmlns="http://www.w3.org/2000/svg" width="31" height="30" fill="none"><g clip-path="url(#a)"><path fill="#fff" d="M30.5 15.091c0 7.487-5.492 13.693-12.663 14.819V19.456h3.487l.663-4.325h-4.15v-2.806c0-1.184.58-2.336 2.438-2.336h1.886V6.306s-1.712-.292-3.349-.292c-3.417 0-5.65 2.071-5.65 5.82v3.296H9.365v4.325h3.798v10.454C5.994 28.78.5 22.576.5 15.09c0-8.283 6.716-15 15-15s15 6.715 15 15"/></g><defs><clipPath id="a"><path fill="#fff" d="M.5 0h30v30H.5z"/></clipPath></defs></svg>
